X: 8
T: The Fairy Dance
R: reel
M: 4/4
L: 1/8
K: Dmaj
M: 2/4
|: ff/d/ ff/d/ | ff/d/ e/c/G/e/ | f[f/d/]d/ g/f/e/d/ | c/A/B/c/ dd :|
|: aa/f/ bb/a/ | gg/e/ aa/g/ | ff/d/ g/f/e/d/ | c/A/B/c/ d/e/f/g/ |
a/^g/a/f/ b/a/=g/f/ | g/f/g/e/ a/g/f/e/ | f/e/f/d/ g/f/e/d/ | c/A/B/c/ dd :|


Tune 424	Setting 21847

